packages/core/src/svgs/ogn.svg

<svg width="24" height="24" viewBox="0 0 24 24" fill="none" xmlns="http://www.w3.org/2000/svg">
<g clip-path="url(#clip0_31_15327)">
<path d="M0 0H24V24H0V0Z" fill="#007CFF"/>
<path d="M6.71578 8.5457C5.43006 11.0914 6.15864 14.2371 6.71578 15.4286L8.83721 13.2857C8.62721 12.4671 8.67006 11.2286 8.93149 10.2086C9.24006 8.98713 10.3029 7.76141 11.9401 7.73998C13.0929 7.72713 13.9029 8.27141 14.0829 8.5457L6.90435 15.8314C7.20435 16.3328 8.07864 17.5971 9.38578 18.3C10.6158 18.96 12.5101 18.9814 13.7229 18.6428C14.7134 18.3169 15.6029 17.741 16.3057 16.9707C17.0084 16.2004 17.5005 15.2618 17.7344 14.2457C18.3686 11.6271 17.7172 9.27427 17.2801 8.5457L15.1972 10.6671C15.3386 11.4814 15.3172 13.3157 14.8372 14.4728C14.3658 15.63 13.3886 16.2728 11.9401 16.2728C11.1876 16.2318 10.4721 15.9337 9.91292 15.4286L17.0701 8.10427C15.3558 5.19856 12.3344 5.00141 11.2415 5.19856C10.2729 5.34797 9.35512 5.73021 8.56683 6.31247C7.77855 6.89472 7.14335 7.6596 6.71578 8.54141V8.5457Z" fill="white"/>
</g>
<defs>
<clipPath id="clip0_31_15327">
<rect width="24" height="24" fill="white"/>
</clipPath>
</defs>
</svg>

<svg xmlns="http://www.w3.org/2000/svg" width="24" height="24" fill="none" viewBox="0 0 24 24"><g clip-path="url(#a)"><path fill="#007CFF" d="M0 0h24v24H0z"/><path fill="#fff" d="M6.716 8.546c-1.286 2.545-.557 5.691 0 6.883l2.121-2.143c-.21-.819-.167-2.057.094-3.077.31-1.222 1.372-2.448 3.01-2.469 1.152-.013 1.962.531 2.142.806L6.904 15.83c.3.502 1.175 1.766 2.482 2.469 1.23.66 3.124.681 4.337.343a6.06 6.06 0 0 0 4.011-4.397c.635-2.619-.017-4.972-.454-5.7l-2.083 2.121c.142.814.12 2.649-.36 3.806-.471 1.157-1.448 1.8-2.897 1.8a3.3 3.3 0 0 1-2.027-.844l7.157-7.325C15.356 5.2 12.334 5.001 11.242 5.2A6.06 6.06 0 0 0 6.716 8.54z"/></g><defs><clipPath id="a"><path fill="#fff" d="M0 0h24v24H0z"/></clipPath></defs></svg>
